X:1
T: Dr. Robertson
C:
R:Reel
Q: 232
K:G
M:4/4
L:1/8
|:d1/2c1/2|B2 B2 d3B|cB cd e3d|^c2 A2 a3g|f2 d2 d2 ef|
gf ed c2 ed|cB AG F3A|GF GA Bc Ad|B2 G2 G3:|
d1/2c1/2|B2 BA GB dg|e2 c2 c2 ed|^c2 cB Ac ea|f2 d2 d2 dc|
B2 BA GB dg|e2 c2 c2 AB|cB AG Fe dc|B2 G2 G2 dc|
B2 BA GB dg|e2 c2 c2 ed|^c2 cB Ac ea|f2 d2 d2 ga|
ba gf g2 ef|gf ed c2 ed|cB AG Fe dc|B2 G2 G3||
